client/resources/icons/tech/postgre.svg

<svg width="32" height="32" viewBox="0 0 32 32" fill="none" xmlns="http://www.w3.org/2000/svg">
<path d="M22.839 0C21.5946 0.00946891 20.3573 0.189821 19.162 0.536L19.079 0.563C18.3269 0.432704 17.5661 0.359495 16.803 0.344C15.23 0.317 13.88 0.697 12.792 1.333C11.719 0.964 9.49499 0.317 7.15099 0.448C5.52199 0.536 3.73999 1.031 2.41599 2.427C1.10399 3.818 0.406987 5.974 0.551987 8.912C0.592987 9.719 0.822987 11.036 1.20799 12.749C1.58799 14.458 2.12499 16.458 2.79699 18.286C3.46899 20.109 4.20199 21.749 5.34899 22.863C5.92099 23.42 6.71299 23.895 7.64499 23.854C8.29699 23.827 8.88499 23.541 9.39599 23.119C9.64499 23.447 9.91199 23.587 10.151 23.718C10.459 23.885 10.75 23.999 11.058 24.073C11.61 24.213 12.553 24.396 13.657 24.208C14.059 24.1357 14.4508 24.0151 14.824 23.849L14.871 25.156C14.928 26.536 14.966 27.812 15.376 28.932C15.444 29.115 15.627 30.052 16.345 30.885C17.069 31.718 18.474 32.234 20.084 31.89C21.215 31.65 22.657 31.213 23.616 29.849C24.564 28.505 24.991 26.573 25.075 23.437C25.095 23.265 25.122 23.125 25.147 22.989L25.371 23.01H25.398C26.606 23.062 27.919 22.89 29.018 22.379C29.986 21.931 30.721 21.478 31.257 20.671C31.388 20.472 31.538 20.228 31.576 19.811C31.617 19.4 31.377 18.748 30.981 18.447C30.19 17.843 29.69 18.072 29.153 18.187C28.6271 18.3003 28.0918 18.3646 27.554 18.379C29.095 15.786 30.199 13.026 30.83 10.587C31.205 9.144 31.414 7.816 31.429 6.655C31.45 5.494 31.352 4.468 30.658 3.578C28.481 0.802 25.423 0.03 23.059 0.005H22.84L22.839 0ZM22.776 0.855C25.011 0.834 27.869 1.459 29.921 4.083C30.385 4.672 30.521 5.531 30.505 6.594C30.489 7.657 30.292 8.922 29.932 10.313C29.24 13.012 27.921 16.146 26.073 18.965C26.1366 19.0129 26.2066 19.0516 26.281 19.08C26.666 19.241 27.546 19.376 29.306 19.017C29.749 18.922 30.073 18.861 30.411 19.116C30.493 19.1852 30.5578 19.2725 30.6002 19.3711C30.6425 19.4697 30.6613 19.5769 30.655 19.684C30.6368 19.8464 30.5757 20.001 30.478 20.132C30.139 20.641 29.469 21.127 28.609 21.528C27.849 21.881 26.754 22.064 25.792 22.075C25.303 22.08 24.855 22.043 24.473 21.923L24.453 21.919C24.306 23.33 23.969 26.122 23.749 27.392C23.573 28.417 23.265 29.236 22.677 29.845C22.088 30.46 21.26 30.824 20.14 31.064C18.755 31.361 17.749 31.043 17.099 30.496C16.449 29.949 16.151 29.22 15.974 28.777C15.85 28.47 15.787 28.074 15.725 27.542C15.6569 26.9068 15.6116 26.2694 15.589 25.631C15.548 24.511 15.532 23.391 15.548 22.266C14.9702 22.7958 14.2524 23.1484 13.48 23.282C12.559 23.438 11.741 23.282 11.252 23.162C11.0107 23.1005 10.778 23.0094 10.559 22.891C10.33 22.771 10.116 22.636 9.97099 22.364C9.88743 22.2082 9.86158 22.028 9.89799 21.855C9.94122 21.6793 10.0423 21.5233 10.185 21.412C10.45 21.197 10.8 21.079 11.325 20.969C12.284 20.77 12.622 20.636 12.825 20.473C12.997 20.338 13.196 20.057 13.538 19.645C13.538 19.63 13.538 19.609 13.533 19.593C12.9133 19.5741 12.3067 19.4101 11.762 19.114C11.565 19.322 10.538 20.406 9.29399 21.906C8.77299 22.53 8.19499 22.89 7.58099 22.917C6.97199 22.942 6.41799 22.636 5.94999 22.182C5.01299 21.27 4.26199 19.702 3.61099 17.931C2.95999 16.16 2.43399 14.187 2.05399 12.51C1.67899 10.827 1.45499 9.473 1.42299 8.822C1.28299 6.046 1.93399 4.177 3.04799 2.994C4.16199 1.811 5.68899 1.369 7.17899 1.281C9.85099 1.13 12.392 2.062 12.903 2.26C13.892 1.588 15.168 1.172 16.762 1.197C17.5174 1.20811 18.269 1.30609 19.002 1.489L19.029 1.473C19.3515 1.36131 19.68 1.26783 20.013 1.193C20.918 0.980604 21.8434 0.86694 22.773 0.854L22.776 0.855ZM22.979 1.745H22.782C22.022 1.754 21.255 1.844 20.511 2.005C22.172 2.74 23.427 3.869 24.312 5.005C24.927 5.786 25.432 6.645 25.817 7.562C25.969 7.917 26.068 8.213 26.12 8.442C26.151 8.557 26.167 8.655 26.177 8.754C26.177 8.806 26.182 8.859 26.156 8.947C26.156 8.952 26.151 8.963 26.151 8.968C26.194 10.135 25.902 10.925 25.864 12.04C25.839 12.848 26.047 13.796 26.099 14.832C26.146 15.805 26.027 16.873 25.396 17.925C25.448 17.988 25.495 18.05 25.547 18.118C27.219 15.482 28.427 12.571 29.068 10.086C29.412 8.747 29.593 7.534 29.609 6.577C29.625 5.618 29.448 4.92 29.218 4.629C27.426 2.342 25.005 1.758 22.978 1.744L22.979 1.745ZM16.588 2.088C15.016 2.093 13.885 2.568 13.027 3.281C12.14 4.021 11.547 5.026 11.162 6.062C10.698 7.286 10.537 8.473 10.474 9.281L10.495 9.27C11.0502 8.95911 11.6464 8.72785 12.266 8.583C12.933 8.426 13.657 8.379 14.307 8.635C14.964 8.884 15.5 9.483 15.698 10.384C16.637 14.728 15.407 16.343 14.954 17.561C14.782 18.004 14.631 18.452 14.511 18.91C14.568 18.899 14.626 18.883 14.683 18.878C15.006 18.853 15.255 18.957 15.402 19.019C15.861 19.211 16.173 19.607 16.345 20.06C16.3872 20.1837 16.4183 20.3108 16.438 20.44C16.4552 20.494 16.4643 20.5503 16.465 20.607C16.4125 22.268 16.4175 23.9303 16.48 25.591C16.512 26.31 16.559 26.94 16.616 27.44C16.673 27.935 16.751 28.315 16.804 28.445C16.975 28.872 17.225 29.429 17.679 29.809C18.127 30.19 18.772 30.44 19.955 30.19C20.98 29.966 21.611 29.663 22.032 29.226C22.455 28.783 22.704 28.174 22.865 27.242C23.11 25.841 23.594 21.778 23.652 21.018C23.627 20.439 23.709 19.997 23.897 19.658C24.084 19.314 24.376 19.101 24.632 18.986C24.756 18.929 24.876 18.893 24.975 18.861C24.8702 18.7149 24.7625 18.5708 24.652 18.429C24.287 17.9861 23.987 17.4935 23.761 16.966C23.6571 16.7448 23.5423 16.5289 23.417 16.319C23.241 16.002 23.017 15.6 22.782 15.147C22.313 14.251 21.803 13.158 21.537 12.095C21.272 11.032 21.236 9.934 21.913 9.163C22.512 8.475 23.569 8.19 25.146 8.351C25.099 8.21 25.074 8.09 24.995 7.908C24.6363 7.06555 24.1686 6.27379 23.604 5.553C22.265 3.84 20.093 2.141 16.745 2.084L16.588 2.088ZM7.73499 2.156C7.56652 2.15582 7.3981 2.16116 7.22999 2.172C5.88099 2.251 4.60999 2.64 3.69799 3.604C2.78699 4.573 2.18899 6.151 2.31799 8.771C2.34499 9.271 2.55799 10.656 2.92699 12.307C3.29799 13.959 3.82299 15.902 4.45399 17.62C5.08299 19.333 5.84499 20.828 6.57399 21.536C6.93799 21.885 7.25499 22.031 7.54199 22.021C7.82899 22.005 8.17799 21.838 8.60499 21.328C9.37988 20.393 10.1843 19.4829 11.017 18.599C10.4264 18.0849 9.97473 17.4305 9.70351 16.696C9.43229 15.9615 9.35026 15.1705 9.46499 14.396C9.59999 13.412 9.62099 12.489 9.59999 11.76C9.58499 11.052 9.53699 10.584 9.53699 10.287V10.255L9.53199 10.246C9.53199 8.709 9.80399 7.189 10.324 5.746C10.699 4.75 11.252 3.746 12.084 2.927C11.267 2.656 9.81299 2.251 8.24099 2.172C8.07287 2.16119 7.90445 2.15585 7.73599 2.156H7.73499ZM24.265 9.197C23.36 9.213 22.854 9.448 22.584 9.749C22.208 10.182 22.172 10.942 22.407 11.88C22.64 12.817 23.126 13.864 23.579 14.735C23.803 15.172 24.022 15.563 24.198 15.88C24.381 16.203 24.511 16.427 24.589 16.625C24.662 16.802 24.746 16.958 24.829 17.104C25.178 16.364 25.241 15.64 25.204 14.88C25.157 13.943 24.939 12.984 24.975 12.016C25.012 10.88 25.236 10.14 25.252 9.265C24.9254 9.22182 24.5964 9.1991 24.267 9.197H24.265ZM13.287 9.355C13.011 9.355 12.735 9.391 12.464 9.454C11.9269 9.58318 11.4098 9.78468 10.927 10.053C10.7645 10.1409 10.6096 10.2423 10.464 10.356L10.432 10.381C10.443 10.58 10.479 11.048 10.495 11.746C10.511 12.506 10.495 13.474 10.35 14.522C10.027 16.803 11.683 18.689 13.626 18.694C13.741 18.225 13.927 17.75 14.115 17.251C14.656 15.792 15.719 14.73 14.823 10.574C14.678 9.897 14.386 9.621 13.984 9.465C13.7603 9.38626 13.524 9.34932 13.287 9.356V9.355ZM23.844 9.625H23.912C23.995 9.63 24.079 9.636 24.151 9.656C24.216 9.66873 24.2781 9.69348 24.334 9.729C24.36 9.74459 24.3823 9.76563 24.3994 9.79066C24.4165 9.81569 24.4279 9.84412 24.433 9.874V9.885C24.4327 9.94895 24.4166 10.0118 24.386 10.068C24.3466 10.1398 24.2979 10.2061 24.241 10.265C24.1065 10.4153 23.9242 10.5146 23.725 10.546C23.5322 10.5707 23.3371 10.5226 23.178 10.411C23.115 10.3653 23.0573 10.3126 23.006 10.254C22.961 10.2067 22.9317 10.1466 22.922 10.082C22.9161 10.0204 22.9348 9.95893 22.974 9.911C23.0203 9.86367 23.0732 9.82326 23.131 9.791C23.26 9.718 23.432 9.666 23.631 9.639C23.703 9.63 23.776 9.624 23.844 9.619V9.625ZM13.416 9.849C13.484 9.849 13.563 9.854 13.636 9.864C13.844 9.896 14.021 9.948 14.161 10.031C14.2296 10.0644 14.2901 10.1126 14.338 10.172C14.3899 10.2347 14.416 10.3148 14.411 10.396C14.3968 10.473 14.3622 10.5448 14.311 10.604C14.2561 10.6708 14.1914 10.7288 14.119 10.776C13.9457 10.9005 13.7316 10.9545 13.52 10.927C13.3056 10.8925 13.1093 10.7864 12.963 10.626C12.9016 10.56 12.8488 10.4864 12.806 10.407C12.7593 10.3362 12.7391 10.2512 12.749 10.167C12.77 10.027 12.89 9.948 13.005 9.907C13.136 9.864 13.276 9.85 13.416 9.855V9.849ZM25.495 19.64H25.49C25.298 19.713 25.137 19.74 25.001 19.803C24.8633 19.8549 24.7502 19.9566 24.684 20.088C24.595 20.24 24.528 20.511 24.548 20.973C24.6081 21.0163 24.6755 21.0484 24.747 21.068C24.971 21.136 25.356 21.183 25.783 21.177C26.632 21.166 27.679 20.969 28.236 20.708C28.6912 20.497 29.1138 20.2219 29.491 19.891C27.632 20.271 26.586 20.172 25.939 19.907C25.78 19.8382 25.631 19.7484 25.496 19.64H25.495ZM14.787 19.765H14.76C14.688 19.77 14.588 19.797 14.385 20.016C13.921 20.536 13.76 20.864 13.38 21.167C12.995 21.474 12.5 21.636 11.505 21.839C11.2928 21.877 11.0861 21.9415 10.89 22.031C10.926 22.063 10.926 22.074 10.983 22.099C11.13 22.183 11.316 22.251 11.468 22.292C11.895 22.396 12.592 22.521 13.327 22.396C14.056 22.271 14.816 21.921 15.468 21.011C15.583 20.855 15.592 20.62 15.499 20.37C15.406 20.126 15.202 19.907 15.062 19.85C14.9744 19.8092 14.8815 19.781 14.786 19.766L14.787 19.765Z" />
</svg>

<svg xmlns="http://www.w3.org/2000/svg" viewBox="0 0 32 32">
  <path d="M22.839 0a13.59 13.59 0 00-3.677.536l-.083.027a15.133 15.133 0 00-2.276-.219c-1.573-.027-2.923.353-4.011.989C11.719.964 9.495.317 7.151.448c-1.629.088-3.411.583-4.735 1.979C1.104 3.818.407 5.974.552 8.912c.041.807.271 2.124.656 3.837.38 1.709.917 3.709 1.589 5.537.672 1.823 1.405 3.463 2.552 4.577.572.557 1.364 1.032 2.296.991.652-.027 1.24-.313 1.751-.735.249.328.516.468.755.599.308.167.599.281.907.355.552.14 1.495.323 2.599.135a5.083 5.083 0 001.167-.359l.047 1.307c.057 1.38.095 2.656.505 3.776.068.183.251 1.12.969 1.953.724.833 2.129 1.349 3.739 1.005 1.131-.24 2.573-.677 3.532-2.041.948-1.344 1.375-3.276 1.459-6.412.02-.172.047-.312.072-.448l.224.021h.027c1.208.052 2.521-.12 3.62-.631.968-.448 1.703-.901 2.239-1.708.131-.199.281-.443.319-.86.041-.411-.199-1.063-.595-1.364-.791-.604-1.291-.375-1.828-.26a8.698 8.698 0 01-1.599.192c1.541-2.593 2.645-5.353 3.276-7.792.375-1.443.584-2.771.599-3.932.021-1.161-.077-2.187-.771-3.077C28.481.802 25.423.03 23.059.005h-.219L22.839 0zm-.063.855c2.235-.021 5.093.604 7.145 3.228.464.589.6 1.448.584 2.511-.016 1.063-.213 2.328-.573 3.719-.692 2.699-2.011 5.833-3.859 8.652a.849.849 0 00.208.115c.385.161 1.265.296 3.025-.063.443-.095.767-.156 1.105.099a.691.691 0 01.244.568.92.92 0 01-.177.448c-.339.509-1.009.995-1.869 1.396-.76.353-1.855.536-2.817.547-.489.005-.937-.032-1.319-.152l-.02-.004c-.147 1.411-.484 4.203-.704 5.473-.176 1.025-.484 1.844-1.072 2.453-.589.615-1.417.979-2.537 1.219-1.385.297-2.391-.021-3.041-.568-.65-.547-.948-1.276-1.125-1.719-.124-.307-.187-.703-.249-1.235a26.832 26.832 0 01-.136-1.911 66.172 66.172 0 01-.041-3.365 4.092 4.092 0 01-2.068 1.016c-.921.156-1.739 0-2.228-.12a3.031 3.031 0 01-.693-.271c-.229-.12-.443-.255-.588-.527a.75.75 0 01-.073-.509.806.806 0 01.287-.443c.265-.215.615-.333 1.14-.443.959-.199 1.297-.333 1.5-.496.172-.135.371-.416.713-.828 0-.015 0-.036-.005-.052a3.96 3.96 0 01-1.771-.479c-.197.208-1.224 1.292-2.468 2.792-.521.624-1.099.984-1.713 1.011-.609.025-1.163-.281-1.631-.735-.937-.912-1.688-2.48-2.339-4.251-.651-1.771-1.177-3.744-1.557-5.421-.375-1.683-.599-3.037-.631-3.688-.14-2.776.511-4.645 1.625-5.828 1.114-1.183 2.641-1.625 4.131-1.713 2.672-.151 5.213.781 5.724.979.989-.672 2.265-1.088 3.859-1.063a9.85 9.85 0 012.24.292l.027-.016a9.11 9.11 0 01.984-.28c.905-.212 1.83-.326 2.76-.339l.003.001zm.203.89h-.197c-.76.009-1.527.099-2.271.26 1.661.735 2.916 1.864 3.801 3 .615.781 1.12 1.64 1.505 2.557.152.355.251.651.303.88.031.115.047.213.057.312 0 .052.005.105-.021.193 0 .005-.005.016-.005.021.043 1.167-.249 1.957-.287 3.072-.025.808.183 1.756.235 2.792.047.973-.072 2.041-.703 3.093.052.063.099.125.151.193 1.672-2.636 2.88-5.547 3.521-8.032.344-1.339.525-2.552.541-3.509.016-.959-.161-1.657-.391-1.948-1.792-2.287-4.213-2.871-6.24-2.885l.001.001zm-6.391.343c-1.572.005-2.703.48-3.561 1.193-.887.74-1.48 1.745-1.865 2.781-.464 1.224-.625 2.411-.688 3.219l.021-.011a6.787 6.787 0 011.771-.687c.667-.157 1.391-.204 2.041.052.657.249 1.193.848 1.391 1.749.939 4.344-.291 5.959-.744 7.177-.172.443-.323.891-.443 1.349.057-.011.115-.027.172-.032.323-.025.572.079.719.141.459.192.771.588.943 1.041.042.124.073.25.093.38.017.054.026.11.027.167a72.023 72.023 0 00.015 4.984c.032.719.079 1.349.136 1.849.057.495.135.875.188 1.005.171.427.421.984.875 1.364.448.381 1.093.631 2.276.381 1.025-.224 1.656-.527 2.077-.964.423-.443.672-1.052.833-1.984.245-1.401.729-5.464.787-6.224-.025-.579.057-1.021.245-1.36.187-.344.479-.557.735-.672.124-.057.244-.093.343-.125-.105-.146-.213-.29-.323-.432a6.041 6.041 0 01-.891-1.463 7.4 7.4 0 00-.344-.647c-.176-.317-.4-.719-.635-1.172-.469-.896-.979-1.989-1.245-3.052-.265-1.063-.301-2.161.376-2.932.599-.688 1.656-.973 3.233-.812-.047-.141-.072-.261-.151-.443a10.472 10.472 0 00-1.391-2.355c-1.339-1.713-3.511-3.412-6.859-3.469l-.157.004zm-8.853.068a7.72 7.72 0 00-.505.016c-1.349.079-2.62.468-3.532 1.432-.911.969-1.509 2.547-1.38 5.167.027.5.24 1.885.609 3.536.371 1.652.896 3.595 1.527 5.313.629 1.713 1.391 3.208 2.12 3.916.364.349.681.495.968.485.287-.016.636-.183 1.063-.693a57.323 57.323 0 012.412-2.729 4.666 4.666 0 01-1.552-4.203c.135-.984.156-1.907.135-2.636-.015-.708-.063-1.176-.063-1.473v-.032l-.005-.009c0-1.537.272-3.057.792-4.5.375-.996.928-2 1.76-2.819-.817-.271-2.271-.676-3.843-.755a7.762 7.762 0 00-.505-.016h-.001zm16.53 7.041c-.905.016-1.411.251-1.681.552-.376.433-.412 1.193-.177 2.131.233.937.719 1.984 1.172 2.855.224.437.443.828.619 1.145.183.323.313.547.391.745.073.177.157.333.24.479.349-.74.412-1.464.375-2.224-.047-.937-.265-1.896-.229-2.864.037-1.136.261-1.876.277-2.751a7.9 7.9 0 00-.985-.068h-.002zm-10.978.158c-.276 0-.552.036-.823.099-.537.13-1.054.33-1.537.599-.162.088-.317.19-.463.303l-.032.025c.011.199.047.667.063 1.365.016.76 0 1.728-.145 2.776-.323 2.281 1.333 4.167 3.276 4.172.115-.469.301-.944.489-1.443.541-1.459 1.604-2.521.708-6.677-.145-.677-.437-.953-.839-1.109a1.935 1.935 0 00-.697-.109v-.001zm10.557.27h.068c.083.005.167.011.239.031a.532.532 0 01.183.073.21.21 0 01.099.145v.011a.386.386 0 01-.047.183.921.921 0 01-.145.197.875.875 0 01-.516.281.78.78 0 01-.547-.135 1.041 1.041 0 01-.172-.157.318.318 0 01-.084-.172.235.235 0 01.052-.171.69.69 0 01.157-.12c.129-.073.301-.125.5-.152.072-.009.145-.015.213-.02v.006zm-10.428.224c.068 0 .147.005.22.015.208.032.385.084.525.167a.52.52 0 01.177.141.32.32 0 01.073.224.44.44 0 01-.1.208.848.848 0 01-.192.172.84.84 0 01-.599.151.96.96 0 01-.557-.301 1.06 1.06 0 01-.157-.219.36.36 0 01-.057-.24c.021-.14.141-.219.256-.26.131-.043.271-.057.411-.052v-.006zm12.079 9.791h-.005c-.192.073-.353.1-.489.163a.587.587 0 00-.317.285c-.089.152-.156.423-.136.885.06.043.128.075.199.095.224.068.609.115 1.036.109.849-.011 1.896-.208 2.453-.469a5.253 5.253 0 001.255-.817c-1.859.38-2.905.281-3.552.016a1.935 1.935 0 01-.443-.267h-.001zm-10.708.125h-.027c-.072.005-.172.032-.375.251-.464.52-.625.848-1.005 1.151-.385.307-.88.469-1.875.672a2.574 2.574 0 00-.615.192c.036.032.036.043.093.068.147.084.333.152.485.193.427.104 1.124.229 1.859.104.729-.125 1.489-.475 2.141-1.385.115-.156.124-.391.031-.641-.093-.244-.297-.463-.437-.52a1.033 1.033 0 00-.276-.084l.001-.001z"/>
</svg>
